X:1
T:Pequeños preludios
T:Pequeños preludios
T:para principiantes del Clave
T:J. S. Bach BWV 936
C:J. S. Bach
Z:BWV 936
%%score { ( 1 2 ) | ( 3 4 ) }
L:1/8
M:2/4
K:D
V:1 treble nm="4"
V:2 treble 
V:3 bass 
V:4 bass 
V:1
 A2 d2- | dc/d/ eG | GF z d | FE z c | ED z B | DC z A | B,C D2- | DC/D/ E/D/C/D/ | %8
 E/D/C/B,/[I:staff +1] A,/=G,/F,/E,/ | F,[I:staff -1]F/G/ A/G/F/G/ | A/G/F/E/ D/=C/B,/A,/ | %11
 B,/D/E/F/ G/B/^c/d/ | e/G/F/E/ F/e/d/c/ | d/F/^G/A/ G/d/c/B/ | c/A/B/c/ D/c/B/A/ | %15
 ^G/E/F/G/ A/B/c/d/ | e2 a2- | a^g/a/ bd | ce d/c/B/A/ | A4 :: A2 e2- | ef/=g/ a/g/f/e/ | f4- | %23
 f4 | g2 f2- | fe/^d/ e2- | ea/b/ a/g/f/e/ | e ^d2 e/f/ | gf/g/ a/g/f/a/ | g/f/e/g/ f/e/^d/f/ | %30
 e4- | e4- | e f2 e- | e^deg | A/g/f/a/ g/f/e/^d/ | e3 z | x4 | e4- | e2 g2 | =gf/e/ f/a/g/b/ | %40
 a/=c/B/A/ B/a/g/f/ | g/B/^c/d/ c/g/f/e/ | f/d/e/f/ G/f/e/d/ | c/A/B/c/ d/e/f/g/ | a2 d'2- | %45
 d'c'/d'/ e'g | fa g/f/e/d/ | d4 :| %48
V:2
 F4 | E4- | E2 D2- | D2 C2- | C2 B,2- | B,2 A,2- | A,2 ^G,2 | A,4- | A, x x2 | x4 | x4 | x4 | x4 | %13
 x4 | x4 | x4 | c4 | B4- | B A2 ^G | z/ E/C- C2 :: z4 | z4 | D2 A2- | AB/=c/ d/c/B/A/ | B2 A2 | %25
 G2- GA/B/ | =c4- | c2 B2- | B4- | B4- | BB/=c/ =d/c/B/d/ | =c/B/A/c/ B/A/^G/B/ | A2 =G2 | F2 E z | %34
 x4 | x4 | b2 =d2- | d^c/B/ c/A/^G/B/ | A4- | A2 z2 | x4 | x4 | x4 | x4 | f4 | e4- | e d2 c | %47
 z/ A/F- !fermata!F2 :| %48
V:3
 D,E,F,G, | A,B,CA, | DCB,A, | G,E,A,G, | F,B,^G,E, | A,^G,F,E, | D,C,B,,E, | A,,B,,C,B,, | %8
 A,,B,,C,A,, | D,E,F,E, | D,E,F,D, | G,F,E,D, | C,B,,^A,,F,, | B,,E,,E,^G, | A,^G,F,D, | %15
 E,D,C,B,, | A,,B,,C,D, | E,F,^G,E, | A,C,D,E, | A,,>E, A,2 :: x4 | x4 | x4 | x4 | x4 | x4 | x4 | %27
 x4 | x4 | x4 | x4 | x4 | x4 | x4 | z2 z A,- | A,/G,/F,/A,/ G, z | x4 | x4 | x4 | x4 | x4 | x4 | %42
 x4 | x4 | x4 | x4 | x4 | x4 :| %48
V:4
 x4 | x4 | x4 | x4 | x4 | x4 | x4 | x4 | x4 | x4 | x4 | x4 | x4 | x4 | x4 | x4 | x4 | x4 | x4 | %19
 x4 :: A,B,A,=G, | F,E,F,A, | D,E,D,=C, | B,,A,,B,,D, | G,,G,A,B, | =C=C,CB, | A,F,G,A, | %27
 B,A,G,F, | E,EB,^D | EG,A,F, | G,E^G,E | A,=CDB, | =C/B,/A,/C/ B,/A,/G,/B,/ | %33
 A,/G,/F,/A,/ G,/F,/E,/=D,/ | =C,/B,,/A,,/C,/ B,,2 | E,2- E,/^D,/E,/F,/ | ^G,B,G,E, | A, A,,2 B,, | %38
 ^C,E,C,A,, | D, D,,2 E, | F,E,^D,B,, | E,A,,A,C | DCB,G, | A,G,F,E, | D,E,F,G, | A,B,CA, | %46
 DF,G,A, | D,>A, D2 :| %48

